X: 1
T:a Favourite Highland Air
M:C
K:D
"Slow"\
DF A>B{B}d2| {c}B>AB>F {F}A>B{B}d2|\
DF {F}A>B{B}d2| {c}B>Ad>B {B}A>FED|:\
DF A>B{B}d2| B>AB>F {F}A>B{B}d2|\
(d3/e//f//) g>f {f}e>d{d}Hc2\
|1 "tr"B>A d>B {B}A>FEF :|2 B>A d>B {B}A>FD<E|]
